X:1
L:1/8
Q:1/8=120
M:6/8
K:Emin
""Em"" E3 EDB, | GFG AGA | B3 ABA | GEF EDB, |""D"" A,3 EDB, | GFG AGA | B3 ABA |1""Em"" GED EGF :|2 
""Em"" GED E2 B |:""Em"" ege dBA |""D"" GAB d2 d |""Em"" (3efg e dBA |""D"" BGE DB,D |""Em"" E3 EDB, | 
 GFG AGA |""D"" B3 ABA |1""Em"" GED E2 B :|2""Em"" GED EGF |]
